!!!SOCIAL_FUNCTION:	songs for little children
!!!PDT:	1939
!!!OTL: No_128_Song_of_a_Grandparent.krn
!!!LANG: Non-Tone
!!!LING_GROUP: Wakashan
!!!REG: Pacific Northwest
**kern
*staff1
=1-
*clefF4
*k[b-]
*M2/4
4r
8r
8c\
=2
4d\
8d\L
8d\J
=3
4c\
16A\LK
8G\
16c\Jk
=4
4c\
8c\L
8B-\J
=5
16B-\LK
8.G\J
8F\L
8F\J
=6
4G\
8B-\L
8B-\J
=7
16B-\LK
8.G\J
8F\L
16F\Jk
32r
32G\
=8
4G\
16F\
16r
8G\
=9
2F\
=10
4F\
8F\
8r
=11
8B-\L
8B-\J
8B-\L
8A\J
=12
16A\LK
8.G\J
12F\L
12F\
12B-\J
=13
4G\
8F\
16r
16B-\
=14
16B-\LK
8.G\J
16F\
16r
8F\
=15
4G\
16F\
16r
8G\
=16
2F\
==
*-
